X:10
T:K.V. 487/10
M:C|
L:1/8
K:C major
V:1
c4 (dcde) | c2 G2 G2 G2 | D4 (edef) | d2 G2 G2 G2 | G4 (BcdB) | c4 (a^fdc) | B(gea) g2 ^f2 | (^f4g2) z2 ::
V:2
E4 G4 | ECEG EGEC | G4 (cBcd) | dGBd BdBG | E2 z2 G4 | A4 ^F4 | G2 c2 d2 d2 | (d4G2) z2 ::
V:1
+mf+ g4 (efga) | f4 (defg) | (fede) c2 f2 | (e4 d2) z2 | +p+ f4 (edcB) | g4 (fedc) | (Aafd) c2 B2 | (B4c2) z2 :|]
V:2
z2 e2 ^c2 A2 | z2 d2 B2 G2 | c2 B2 A2 d2 | cCDC G2 z2 | z2 +mf+ d2 B2 G2 | z2 E2 c2 A2 | z2 z ^F G2 G,2 | (G,4 C2) z2 :|]

